apps/web/src/icons/raw/logo.svg

<svg xmlns="http://www.w3.org/2000/svg" width="20" height="20" fill="none" class="icon-0-2-14 icon-0-2-4" viewBox="0 0 20 20">
    <path fill="white" d="M0 1.45312V2.30783L9.65812 17.0087L16.1538 7.17962V1.45312L9.65812 11.1967L3.24786 1.45312H0Z"/>
    <path fill="white" d="M0 3.76172V18.548H3.24786V8.63351L0 3.76172Z"/>
    <path fill="white" d="M20.0858 1.45312H16.8379V2.90612H20.0858V1.45312Z"/>
    <path fill="white" d="M20.0858 4.01562H16.8379V5.46862H20.0858V4.01562Z"/>
    <path fill="white" d="M20.0858 6.66797H16.8379V8.12096H20.0858V6.66797Z"/>
    <path fill="white" d="M20.0858 9.23047H16.8379V10.6835H20.0858V9.23047Z"/>
    <path fill="white" d="M20.0858 11.8789H16.8379V13.3319H20.0858V11.8789Z"/>
    <path fill="white" d="M20.0858 14.4453H16.8379V15.8983H20.0858V14.4453Z"/>
    <path fill="white" d="M20.0858 17.0938H16.8379V18.5467H20.0858V17.0938Z"/>
</svg>

<svg xmlns="http://www.w3.org/2000/svg" width="20" height="20" fill="currentColor">
  <path fill="#fff" d="M0 1.453v.855l9.658 14.7 6.496-9.828V1.453l-6.496 9.744-6.41-9.744H0ZM0 3.762v14.786h3.248V8.634L0 3.762ZM20.086 1.453h-3.248v1.453h3.248V1.453ZM20.086 4.016h-3.248v1.453h3.248V4.016ZM20.086 6.668h-3.248v1.453h3.248V6.668ZM20.086 9.23h-3.248v1.454h3.248V9.23ZM20.086 11.879h-3.248v1.453h3.248v-1.453ZM20.086 14.445h-3.248v1.453h3.248v-1.453ZM20.086 17.094h-3.248v1.453h3.248v-1.453Z"/>
</svg>
